assets/img/smile icon.svg

<svg height="600" preserveAspectRatio="xMidYMid meet" viewBox="0 0 450 449.999984" width="600" xmlns="http://www.w3.org/2000/svg" xmlns:xlink="http://www.w3.org/1999/xlink" zoomAndPan="magnify"><clipPath id="a"><path d="m0 100.40625h450v245.59375h-450zm0 0"/></clipPath><g clip-path="url(#a)"><path d="m121.851562 161.589844c-1.292968-6.640625-.351562-13.363282 3.203126-19.203125 5.984374-9.839844 18.023437-15.640625 29.363281-12.085938 11.109375 3.480469 19.808593 14.191407 19.386719 26.082031-.195313 5.671876-4.480469 9.871094-10.128907 10.121094-5.339843.238282-10.3125-4.828125-10.128906-10.121094.011719-.378906 0-.742187 0-1.109374-.113281-.460938-.226563-.941407-.382813-1.390626-.277343-.546874-.589843-1.078124-.925781-1.585937-.449219-.492187-.914062-.96875-1.417969-1.417969-.535156-.351562-1.070312-.660156-1.628906-.953125-.4375-.140625-.886718-.265625-1.335937-.367187-.335938-.011719-.6875-.011719-1.027344 0-.378906.085937-.742187.183594-1.121094.308594-.4375.242187-.871093.480468-1.292969.761718-.507812.449219-.984374.925782-1.433593 1.417969-.367188.558594-.71875 1.148437-1.027344 1.738281-.167969.519532-.320313 1.054688-.433594 1.585938-.027343.605468-.015625 1.222656.042969 1.828125.601562 5.179687-2.011719 9.78125-7.238281 11.46875-4.945313 1.585937-11.460938-1.867188-12.472657-7.078125zm124.277344-24.257813c1.757813 1.753907 4.636719 3.074219 7.167969 2.960938 5.015625-.222657 10.730469-4.476563 10.128906-10.121094-.097656-.898437.011719-1.796875-.015625-2.695313.097656-.390624.226563-.785156.351563-1.164062.015625-.027344.027343-.042969.042969-.070312.253906-.476563.519531-.941407.8125-1.390626.03125-.042968.042968-.070312.070312-.097656.242188-.265625.480469-.546875.734375-.800781.347656-.363281.714844-.703125 1.09375-1.039063.757813-.433593 1.742187-.855468 2.5-1.347656.492187-.152344.984375-.253906 1.476563-.390625.394531-.015625.785156-.042969 1.179687-.03125h.015625c.097656 0 .390625 0 .699219.042969.3125.027344.632812.054688.941406.070312-.265625-.015624-.488281-.015624-.6875-.027343.058594.011719.113281.027343.167969.027343.535156.125 1.070312.265626 1.589844.433594.054687.015625.113281.042969.183593.070313-.15625-.082031-.339843-.179688-.550781-.292969.210938.113281.421875.222656.648438.335938.492187.199218.96875.476562.730468.378906.519532.269531 1.039063.546875 1.53125.871094.113282.070312.210938.140624.308594.210937.238281.195313.492188.378906.703125.574219.714844.648437 1.390625 1.714844 2.148437 2.304687.28125.421875.5625.839844.816407 1.277344.308593.519531.574219 1.050781.839843 1.585937.351563 1.082032.691407 2.148438.914063 3.257813 1.082031 5.191406 7.488281 8.6875 12.460937 7.074219 5.496094-1.78125 8.234376-6.894532 7.082032-12.453125-2.9375-14.179688-16.3125-26.238281-31.078125-26.011719-14.863281.222656-29.601563 13.800781-27.972657 29.296875.28125 2.765625.929688 5.140625 2.964844 7.160156zm25.558594-16.199219c-.140625.011719.054688.042969.96875.082032-.085938-.011719-.167969-.027344-.253906-.039063-.238282-.015625-.476563-.03125-.714844-.042969zm2.890625.617188c.464844.238281.71875.363281.816406.421875-.238281-.128906-.492187-.253906-.730469-.378906-.027343-.015625-.054687-.03125-.085937-.042969zm174.648437-10.964844c-.785156-2.457031-2.316406-4.816406-4.664062-6.050781-2.570312-1.363281-4.945312-1.433594-7.8125-1.023437-12.683594 1.796874-25.371094 3.59375-38.058594 5.402343-2.332031.339844-4.929687 2.726563-6.054687 4.664063-1.265625 2.175781-1.8125 5.375-1.027344 7.804687.789063 2.457031 2.320313 4.8125 4.664063 6.050781 2.574218 1.359376 4.945312 1.429688 7.8125 1.023438.84375-.113281 1.671874-.238281 2.515624-.351562 7.683594 70.320312-32.761718 139.097656-93.089843 173.984374-62.773438 36.304688-140.886719 27.90625-201.230469-9.335937-17.125-10.570313-32.71875-23.402344-46.402344-38.160156-6.746094-7.269531-12.96875-14.976563-18.5625-23.164063-6.222656-9.109375-13.191406-18.910156-12.023437-30.433594.433593-.210937.855469-.4375 1.304687-.632812 2.179688-.980469 4.046875-3.847656 4.664063-6.050781.675781-2.429688.367187-5.65625-1.023438-7.804688-1.390625-2.164062-3.472656-4.070312-6.054687-4.660156-.902344-.128906-1.800782-.238281-2.699219-.367187-1.828125 0-3.539063.464843-5.113281 1.378906-8.667969 3.902344-16.648438 9.558594-23.394532 16.242187-1.851562 1.796875-2.976562 4.546875-2.976562 7.128907 0 2.488281 1.109375 5.449218 2.964844 7.160156 1.925781 1.769531 4.46875 3.089844 7.164062 2.964844 2.136719-.101563 4.144532-.6875 5.859375-1.898438 3.835938 16.414062 16.410157 31.660156 26.453125 43.972656 12.644532 15.496094 27.410156 29.042969 43.5 40.90625 31.242188 23.023438 68.503906 38.707032 106.96875 44.152344 39.71875 5.617188 79.96875.675781 116.414063-16.410156 35.09375-16.453125 65.0625-43.617188 86.21875-75.949219 23.675781-36.164063 36.082031-80.164063 31.277343-123.359375-.101562-.855469-.269531-1.683594-.523437-2.484375 5.285156-.746094 10.554687-1.503906 15.835937-2.246094 2.332032-.335937 4.929688-2.722656 6.054688-4.660156 1.292969-2.164063 1.828125-5.363281 1.039062-7.792969zm0 0" fill="#e6a6cd"/></g></svg>

<svg xmlns="http://www.w3.org/2000/svg" xmlns:xlink="http://www.w3.org/1999/xlink" width="600" zoomAndPan="magnify" viewBox="0 0 450 449.999984" height="600" preserveAspectRatio="xMidYMid meet" version="1.0"><defs><clipPath id="id1"><path d="M 0 100.40625 L 450 100.40625 L 450 346 L 0 346 Z M 0 100.40625 " clip-rule="nonzero"/></clipPath></defs><g clip-path="url(#id1)"><path fill="#e6a6cd" d="M 121.851562 161.589844 C 120.558594 154.949219 121.5 148.226562 125.054688 142.386719 C 131.039062 132.546875 143.078125 126.746094 154.417969 130.300781 C 165.527344 133.78125 174.226562 144.492188 173.804688 156.382812 C 173.609375 162.054688 169.324219 166.253906 163.675781 166.503906 C 158.335938 166.742188 153.363281 161.675781 153.546875 156.382812 C 153.558594 156.003906 153.546875 155.640625 153.546875 155.273438 C 153.433594 154.8125 153.320312 154.332031 153.164062 153.882812 C 152.886719 153.335938 152.574219 152.804688 152.238281 152.296875 C 151.789062 151.804688 151.324219 151.328125 150.820312 150.878906 C 150.285156 150.527344 149.75 150.21875 149.191406 149.925781 C 148.753906 149.785156 148.304688 149.660156 147.855469 149.558594 C 147.519531 149.546875 147.167969 149.546875 146.828125 149.558594 C 146.449219 149.644531 146.085938 149.742188 145.707031 149.867188 C 145.269531 150.109375 144.835938 150.347656 144.414062 150.628906 C 143.90625 151.078125 143.429688 151.554688 142.980469 152.046875 C 142.613281 152.605469 142.261719 153.195312 141.953125 153.785156 C 141.785156 154.304688 141.632812 154.839844 141.519531 155.371094 C 141.492188 155.976562 141.503906 156.59375 141.5625 157.199219 C 142.164062 162.378906 139.550781 166.980469 134.324219 168.667969 C 129.378906 170.253906 122.863281 166.800781 121.851562 161.589844 Z M 246.128906 137.332031 C 247.886719 139.085938 250.765625 140.40625 253.296875 140.292969 C 258.3125 140.070312 264.027344 135.816406 263.425781 130.171875 C 263.328125 129.273438 263.4375 128.375 263.410156 127.476562 C 263.507812 127.085938 263.636719 126.691406 263.761719 126.3125 C 263.777344 126.285156 263.789062 126.269531 263.804688 126.242188 C 264.058594 125.765625 264.324219 125.300781 264.617188 124.851562 C 264.648438 124.808594 264.660156 124.78125 264.6875 124.753906 C 264.929688 124.488281 265.167969 124.207031 265.421875 123.953125 C 265.769531 123.589844 266.136719 123.25 266.515625 122.914062 C 267.273438 122.480469 268.257812 122.058594 269.015625 121.566406 C 269.507812 121.414062 270 121.3125 270.492188 121.175781 C 270.886719 121.160156 271.277344 121.132812 271.671875 121.144531 C 271.671875 121.144531 271.671875 121.144531 271.6875 121.144531 C 271.785156 121.144531 272.078125 121.144531 272.386719 121.1875 C 272.699219 121.214844 273.019531 121.242188 273.328125 121.257812 C 273.0625 121.242188 272.839844 121.242188 272.640625 121.230469 C 272.699219 121.242188 272.753906 121.257812 272.808594 121.257812 C 273.34375 121.382812 273.878906 121.523438 274.398438 121.691406 C 274.453125 121.707031 274.511719 121.734375 274.582031 121.761719 C 274.425781 121.679688 274.242188 121.582031 274.03125 121.46875 C 274.242188 121.582031 274.453125 121.691406 274.679688 121.804688 C 275.171875 122.003906 275.648438 122.28125 275.410156 122.183594 C 275.929688 122.453125 276.449219 122.730469 276.941406 123.054688 C 277.054688 123.125 277.152344 123.195312 277.25 123.265625 C 277.488281 123.460938 277.742188 123.644531 277.953125 123.839844 C 278.667969 124.488281 279.34375 125.554688 280.101562 126.144531 C 280.382812 126.566406 280.664062 126.984375 280.917969 127.421875 C 281.226562 127.941406 281.492188 128.472656 281.757812 129.007812 C 282.109375 130.089844 282.449219 131.15625 282.671875 132.265625 C 283.753906 137.457031 290.160156 140.953125 295.132812 139.339844 C 300.628906 137.558594 303.367188 132.445312 302.214844 126.886719 C 299.277344 112.707031 285.902344 100.648438 271.136719 100.875 C 256.273438 101.097656 241.535156 114.675781 243.164062 130.171875 C 243.445312 132.9375 244.09375 135.3125 246.128906 137.332031 Z M 271.6875 121.132812 C 271.546875 121.144531 271.742188 121.175781 272.65625 121.214844 C 272.570312 121.203125 272.488281 121.1875 272.402344 121.175781 C 272.164062 121.160156 271.925781 121.144531 271.6875 121.132812 Z M 274.578125 121.75 C 275.042969 121.988281 275.296875 122.113281 275.394531 122.171875 C 275.15625 122.042969 274.902344 121.917969 274.664062 121.792969 C 274.636719 121.777344 274.609375 121.761719 274.578125 121.75 Z M 449.226562 110.785156 C 448.441406 108.328125 446.910156 105.96875 444.5625 104.734375 C 441.992188 103.371094 439.617188 103.300781 436.75 103.710938 C 424.066406 105.507812 411.378906 107.304688 398.691406 109.113281 C 396.359375 109.453125 393.761719 111.839844 392.636719 113.777344 C 391.371094 115.953125 390.824219 119.152344 391.609375 121.582031 C 392.398438 124.039062 393.929688 126.394531 396.273438 127.632812 C 398.847656 128.992188 401.21875 129.0625 404.085938 128.65625 C 404.929688 128.542969 405.757812 128.417969 406.601562 128.304688 C 414.285156 198.625 373.839844 267.402344 313.511719 302.289062 C 250.738281 338.59375 172.625 330.195312 112.28125 292.953125 C 95.15625 282.382812 79.5625 269.550781 65.878906 254.792969 C 59.132812 247.523438 52.910156 239.816406 47.316406 231.628906 C 41.09375 222.519531 34.125 212.71875 35.292969 201.195312 C 35.726562 200.984375 36.148438 200.757812 36.597656 200.5625 C 38.777344 199.582031 40.644531 196.714844 41.261719 194.511719 C 41.9375 192.082031 41.628906 188.855469 40.238281 186.707031 C 38.847656 184.542969 36.765625 182.636719 34.183594 182.046875 C 33.28125 181.917969 32.382812 181.808594 31.484375 181.679688 C 29.65625 181.679688 27.945312 182.144531 26.371094 183.058594 C 17.703125 186.960938 9.722656 192.617188 2.976562 199.300781 C 1.125 201.097656 0 203.847656 0 206.429688 C 0 208.917969 1.109375 211.878906 2.964844 213.589844 C 4.890625 215.359375 7.433594 216.679688 10.128906 216.554688 C 12.265625 216.453125 14.273438 215.867188 15.988281 214.65625 C 19.824219 231.070312 32.398438 246.316406 42.441406 258.628906 C 55.085938 274.125 69.851562 287.671875 85.941406 299.535156 C 117.183594 322.558594 154.445312 338.242188 192.910156 343.6875 C 232.628906 349.304688 272.878906 344.363281 309.324219 327.277344 C 344.417969 310.824219 374.386719 283.660156 395.542969 251.328125 C 419.21875 215.164062 431.625 171.164062 426.820312 127.96875 C 426.71875 127.113281 426.550781 126.285156 426.296875 125.484375 C 431.582031 124.738281 436.851562 123.980469 442.132812 123.238281 C 444.464844 122.902344 447.0625 120.515625 448.1875 118.578125 C 449.480469 116.414062 450.015625 113.214844 449.226562 110.785156 Z M 449.226562 110.785156 " fill-opacity="1" fill-rule="nonzero"/></g></svg>
